src/assets/SquiggleRight.svg

<svg width="187" height="133" viewBox="0 0 187 133" fill="none" xmlns="http://www.w3.org/2000/svg">
<g clip-path="url(#clip0_53_490)">
<path d="M24.4577 77.855C30.6052 76.5629 35.533 75.6967 40.3635 74.4392C43.17 73.713 46.3907 72.8226 45.2243 67.7474C35.3619 68.8883 25.5615 69.2373 16.0787 71.8207C12.1535 72.8954 10.9968 75.3193 11.6572 79.4309C11.8912 80.9281 12.4047 82.3715 12.907 83.8037C15.5511 91.1891 18.2174 98.5746 20.9286 105.938C21.8249 108.378 22.999 110.987 26.2309 110.085C29.1274 109.27 29.8733 106.587 29.4026 103.927C28.8897 100.955 27.9075 98.0684 27.037 95.1604C26.4168 93.0912 25.6512 91.0543 25.8156 88.5224C26.4911 89.2083 27.1776 89.9055 27.8531 90.5913C35.328 98.1141 39.7955 99.0745 49.5905 95.0763C57.4377 91.8667 64.2918 87.1764 69.8206 80.6906C71.1381 79.1495 72.4333 77.586 73.8172 76.1124C79.5435 70.0744 83.9038 70.4537 87.9879 77.772C90.0684 81.5039 91.3757 85.6651 92.952 89.6722C97.7031 101.694 104.339 105.148 116.853 101.595C126.203 98.9433 134.75 94.6231 142.142 88.1627C144.423 86.1603 146.715 84.1022 149.283 82.5484C153.419 80.0692 155.958 80.8252 157.462 85.4566C159.033 90.2448 159.797 95.2946 160.797 100.246C161.496 103.722 161.692 107.316 162.659 110.705C164.68 117.796 169.094 122.907 176.662 124.047C182.38 124.905 188.225 125.33 194.016 125.296C197.844 125.269 201.46 123.813 203.173 118.737C201.22 118.644 199.647 118.576 198.075 118.464C192.041 118.094 185.971 117.981 179.984 117.277C174.175 116.596 171.17 112.69 170.286 107.114C169.541 102.355 169.199 97.5314 168.309 92.8266C167.504 88.6134 166.678 84.2884 165.011 80.3923C161.404 71.9841 153.4 69.5236 145.574 74.3292C141.93 76.5666 138.649 79.4206 135.414 82.2526C128.988 87.8946 121.517 91.5089 113.365 93.6895C106.611 95.4903 104.267 94.122 101.548 87.7628C99.3553 82.6574 97.6444 77.2767 94.8351 72.5349C92.9953 69.4297 89.9699 66.6725 86.8598 64.774C81.2838 61.3835 75.5967 62.3109 70.8753 66.8277C68.3236 69.2521 65.9705 71.9681 63.8842 74.82C59.0462 81.4451 52.266 85.2208 44.9554 88.3006C41.4625 89.7692 38.3601 89.7902 35.3265 86.6424C32.4262 83.5848 28.8059 81.2807 24.4577 77.855Z" fill="#B16E4B"/>
</g>
<defs>
<clipPath id="clip0_53_490">
<rect width="122.84" height="166.948" fill="white" transform="matrix(-0.712496 0.701676 0.701676 0.712496 87.5229 0)"/>
</clipPath>
</defs>
</svg>

<svg width="187" height="133" fill="none"><g clip-path="url(#a)"><path fill="#B16E4B" d="M24.458 77.855c6.147-1.292 11.075-2.158 15.906-3.416 2.806-.726 6.027-1.616 4.86-6.692-9.862 1.141-19.662 1.49-29.145 4.074-3.926 1.074-5.082 3.498-4.422 7.61.234 1.497.748 2.94 1.25 4.373 2.644 7.385 5.31 14.77 8.022 22.134.896 2.44 2.07 5.049 5.302 4.147 2.896-.815 3.642-3.498 3.172-6.158-.513-2.972-1.495-5.859-2.366-8.767-.62-2.069-1.386-4.106-1.221-6.638l2.037 2.07c7.475 7.522 11.942 8.483 21.737 4.484 7.848-3.21 14.702-7.9 20.23-14.385 1.318-1.541 2.613-3.105 3.997-4.579 5.727-6.038 10.087-5.658 14.17 1.66 2.081 3.732 3.389 7.893 4.965 11.9 4.751 12.022 11.387 15.476 23.901 11.923 9.35-2.652 17.897-6.972 25.289-13.432 2.281-2.003 4.573-4.06 7.141-5.615 4.136-2.479 6.675-1.723 8.179 2.909 1.571 4.788 2.335 9.838 3.335 14.789.699 3.476.895 7.07 1.862 10.459 2.021 7.091 6.435 12.202 14.003 13.342a112.92 112.92 0 0 0 17.354 1.249c3.828-.027 7.444-1.483 9.157-6.559-1.953-.093-3.526-.161-5.098-.273-6.034-.37-12.104-.483-18.091-1.187-5.809-.681-8.814-4.587-9.698-10.163-.745-4.759-1.087-9.583-1.977-14.287-.805-4.214-1.631-8.539-3.298-12.435-3.607-8.408-11.611-10.868-19.437-6.063-3.644 2.238-6.925 5.092-10.16 7.924-6.426 5.642-13.897 9.256-22.049 11.436-6.754 1.801-9.098.433-11.817-5.926-2.193-5.106-3.904-10.486-6.713-15.228-1.84-3.105-4.865-5.862-7.975-7.761-5.576-3.39-11.263-2.463-15.985 2.054-2.551 2.424-4.904 5.14-6.99 7.992-4.839 6.625-11.619 10.4-18.93 13.48-3.492 1.47-6.595 1.49-9.628-1.658-2.9-3.057-6.521-5.361-10.87-8.787Z"/></g><defs><clipPath id="a"><path fill="#fff" d="M87.523 0 0 86.194l117.143 118.95 87.523-86.194z"/></clipPath></defs></svg>
